icon-themes/sifr_svg/formula/res/refinp1.svg

<svg viewBox="0 0 16 16" xmlns="http://www.w3.org/2000/svg"><path d="m1.9 1c-.5 0-.9.4-.9.9v6.1h4l2-2h-4v-2h10v2h-4l2 2h4v-6.1c0-.5-.4-.9-.9-.9zm5.9 6-.5.3-2 2c-.2.2-.3.4-.3.7v1h1c.3 0 .5-.1.7-.3l.3-.3v4.6h2v-4.6l.3.3c.1.2.4.3.7.3h1v-1c0-.3-.1-.6-.3-.7l-2-2-.3-.3z" fill="#555753"/></svg>

<svg xmlns="http://www.w3.org/2000/svg" viewBox="0 0 16 16">
  <path
     style="fill:#555753"
     d="M 1.9 1 C 1.4 1 1 1.4 1 1.9 L 1 8 L 5 8 L 7 6 L 3 6 L 3 4 L 13 4 L 13 6 L 9 6 L 11 8 L 15 8 L 15 1.9 C 15 1.4 14.6 1 14.1 1 L 1.9 1 z M 7.8 7 L 7.3 7.3 L 5.3 9.3 C 5.1 9.5 5 9.7 5 10 L 5 11 L 6 11 C 6.3 11 6.5 10.9 6.7 10.7 L 7 10.4 L 7 15 L 9 15 L 9 10.4 L 9.3 10.7 C 9.4 10.9 9.7 11 10 11 L 11 11 L 11 10 C 11 9.7 10.9 9.4 10.7 9.3 L 8.7 7.3 L 8.4 7 L 7.8 7 z "
     />
</svg>
